src/images/logo-h.svg

<?xml version="1.0" encoding="UTF-8"?>
<!DOCTYPE svg  PUBLIC '-//W3C//DTD SVG 1.1//EN'  'http://www.w3.org/Graphics/SVG/1.1/DTD/svg11.dtd'>
<svg clip-rule="evenodd" fill-rule="evenodd" stroke-linejoin="round" stroke-miterlimit="2" version="1.1" viewBox="0 0 241 53" xml:space="preserve" xmlns="http://www.w3.org/2000/svg">
    <g transform="translate(-125.92 -197.92)">
        <g transform="translate(0 173.58)">
            <g transform="translate(-25.246 -17.318)">
                <g transform="matrix(.098335 0 0 .098335 -4263.5 -2513.6)">
                    <g transform="matrix(1.6056 0 0 1 4471.6 18748)">
                        <g transform="matrix(249.12 0 0 400 25529 7634)">
                            <path d="m0.033-0.279c0 0.173 0.112 0.288 0.252 0.288 0.088 0 0.151-0.042 0.184-0.09v0.081h0.141v-0.554h-0.141v0.079c-0.033-0.046-0.094-0.088-0.183-0.088-0.141 0-0.253 0.111-0.253 0.284zm0.436 2e-3c0 0.105-0.07 0.163-0.147 0.163-0.075 0-0.146-0.06-0.146-0.165s0.071-0.161 0.146-0.161c0.077 0 0.147 0.058 0.147 0.163z" fill="#20203e" fill-rule="nonzero"/>
                        </g>
                        <g transform="matrix(249.12 0 0 400 25693 7634)">
                            <rect x=".069" y="-.74" width=".14" height=".74" fill="#20203e" fill-rule="nonzero"/>
                        </g>
                        <g transform="matrix(249.12 0 0 400 25757 7634)">
                            <path d="m0.307-0.448c0.072 0 0.13 0.046 0.132 0.119h-0.263c0.011-0.076 0.064-0.119 0.131-0.119zm0.263 0.274h-0.151c-0.018 0.037-0.051 0.067-0.111 0.067-0.07 0-0.126-0.046-0.133-0.128h0.405c3e-3 -0.018 4e-3 -0.036 4e-3 -0.054 0-0.165-0.113-0.274-0.273-0.274-0.164 0-0.278 0.111-0.278 0.286 0 0.174 0.117 0.286 0.278 0.286 0.137 0 0.229-0.081 0.259-0.183z" fill="#20203e" fill-rule="nonzero"/>
                        </g>
                        <g transform="matrix(249.12 0 0 400 25906 7634)">
                            <path d="m0.209-0.474v-0.08h-0.14v0.818h0.14v-0.343c0.034 0.045 0.096 0.088 0.183 0.088 0.142 0 0.253-0.115 0.253-0.288s-0.111-0.284-0.253-0.284c-0.086 0-0.15 0.042-0.183 0.089zm0.293 0.195c0 0.105-0.071 0.165-0.147 0.165-0.075 0-0.146-0.058-0.146-0.163s0.071-0.163 0.146-0.163c0.076 0 0.147 0.056 0.147 0.161z" fill="#20203e" fill-rule="nonzero"/>
                        </g>
                        <g transform="matrix(249.12 0 0 400 26070 7634)">
                            <path d="m0.069 0h0.14v-0.306c0-0.089 0.049-0.137 0.125-0.137 0.074 0 0.123 0.048 0.123 0.137v0.306h0.14v-0.325c0-0.153-0.091-0.237-0.216-0.237-0.074 0-0.136 0.03-0.172 0.077v-0.255h-0.14v0.74z" fill="#20203e" fill-rule="nonzero"/>
                        </g>
                        <g transform="matrix(249.12 0 0 400 26230 7634)">
                            <rect x=".069" y="-.554" width=".14" height=".554" fill="#20203e" fill-rule="nonzero"/>
                        </g>
                        <g transform="matrix(249.12 0 0 400 26294 7634)">
                            <path d="m0.592-0.554h-0.141v0.305c0 0.089-0.048 0.137-0.124 0.137-0.074 0-0.123-0.048-0.123-0.137v-0.305h-0.14v0.325c0 0.152 0.093 0.236 0.222 0.236 0.069 0 0.13-0.03 0.165-0.077v0.07h0.141v-0.554z" fill="#20203e" fill-rule="nonzero"/>
                        </g>
                        <g transform="matrix(249.12 0 0 400 26453 7634)">
                            <path d="m0.844 0h0.14v-0.325c0-0.153-0.094-0.237-0.227-0.237-0.081 0-0.154 0.043-0.19 0.106-0.038-0.069-0.109-0.106-0.195-0.106-0.069 0-0.128 0.029-0.163 0.075v-0.067h-0.14v0.554h0.14v-0.306c0-0.088 0.049-0.134 0.125-0.134 0.074 0 0.123 0.046 0.123 0.134v0.306h0.14v-0.306c0-0.088 0.049-0.134 0.124-0.134 0.074 0 0.123 0.046 0.123 0.134v0.306z" fill="#20203e" fill-rule="nonzero"/>
                        </g>
                    </g>
                    <g transform="matrix(.87018 -.15344 5.5511e-17 .6001 26639 26981)">
                        <path d="m23021 4364.7c0-7.56-4.1-13.69-9.1-13.69h-47.1c-5.1 0-9.2 6.13-9.2 13.69v85.16c0 7.55 4.1 13.69 9.2 13.69h47.1c5 0 9.1-6.14 9.1-13.69v-85.16z" fill="#20203e"/>
                    </g>
                </g>
                <g transform="matrix(.85764 0 0 .85792 -142.76 -10.008)">
                    <g transform="matrix(.18262 -.032196 -1.4374e-34 .17937 -3849.5 59.581)">
                        <path d="m23021 4359c0-4.38-3.4-7.94-7.6-7.94h-50.2c-4.2 0-7.6 3.56-7.6 7.94v96.65c0 4.39 3.4 7.95 7.6 7.95h50.2c4.2 0 7.6-3.56 7.6-7.95v-96.65z" fill="#20203e"/>
                    </g>
                    <g transform="matrix(.18262 -.032196 -1.4374e-34 .17937 -3825.6 20.762)">
                        <path d="m23021 4359c0-4.38-3.4-7.94-7.6-7.94h-50.2c-4.2 0-7.6 3.56-7.6 7.94v96.65c0 4.39 3.4 7.95 7.6 7.95h50.2c4.2 0 7.6-3.56 7.6-7.95v-96.65z" fill="#ff4d44"/>
                    </g>
                    <g transform="matrix(.19566 -.034496 .20467 .45077 -5039.4 -1103.1)">
                        <path d="m23021 4354.2c0-1.73-3.4-3.13-7.6-3.13h-50.2c-4.2 0-7.6 1.4-7.6 3.13v106.27c0 1.73 3.4 3.14 7.6 3.14h50.2c4.2 0 7.6-1.41 7.6-3.14v-106.27z" fill="#20203e"/>
                    </g>
                </g>
            </g>
        </g>
    </g>
</svg>

<?xml version="1.0" encoding="UTF-8" standalone="no"?>
<!DOCTYPE svg PUBLIC "-//W3C//DTD SVG 1.1//EN" "http://www.w3.org/Graphics/SVG/1.1/DTD/svg11.dtd">
<svg width="100%" height="100%" viewBox="0 0 241 53" version="1.1" xmlns="http://www.w3.org/2000/svg" xmlns:xlink="http://www.w3.org/1999/xlink" xml:space="preserve" xmlns:serif="http://www.serif.com/" style="fill-rule:evenodd;clip-rule:evenodd;stroke-linejoin:round;stroke-miterlimit:2;">
    <g transform="matrix(1,0,0,1,-125.915,-197.924)">
        <g transform="matrix(1,0,0,1,0,173.577)">
            <g transform="matrix(1,0,0,1,-25.2459,-17.3183)">
                <g transform="matrix(0.0983346,0,0,0.0983346,-4263.49,-2513.56)">
                    <g transform="matrix(1.60565,0,0,1,4471.56,18748)">
                        <g transform="matrix(249.121,0,0,400,25528.9,7633.96)">
                            <path d="M0.033,-0.279C0.033,-0.106 0.145,0.009 0.285,0.009C0.373,0.009 0.436,-0.033 0.469,-0.081L0.469,0L0.61,0L0.61,-0.554L0.469,-0.554L0.469,-0.475C0.436,-0.521 0.375,-0.563 0.286,-0.563C0.145,-0.563 0.033,-0.452 0.033,-0.279ZM0.469,-0.277C0.469,-0.172 0.399,-0.114 0.322,-0.114C0.247,-0.114 0.176,-0.174 0.176,-0.279C0.176,-0.384 0.247,-0.44 0.322,-0.44C0.399,-0.44 0.469,-0.382 0.469,-0.277Z" style="fill:rgb(32,32,62);fill-rule:nonzero;"/>
                        </g>
                        <g transform="matrix(249.121,0,0,400,25692.8,7633.96)">
                            <rect x="0.069" y="-0.74" width="0.14" height="0.74" style="fill:rgb(32,32,62);fill-rule:nonzero;"/>
                        </g>
                        <g transform="matrix(249.121,0,0,400,25757.1,7633.96)">
                            <path d="M0.307,-0.448C0.379,-0.448 0.437,-0.402 0.439,-0.329L0.176,-0.329C0.187,-0.405 0.24,-0.448 0.307,-0.448ZM0.57,-0.174L0.419,-0.174C0.401,-0.137 0.368,-0.107 0.308,-0.107C0.238,-0.107 0.182,-0.153 0.175,-0.235L0.58,-0.235C0.583,-0.253 0.584,-0.271 0.584,-0.289C0.584,-0.454 0.471,-0.563 0.311,-0.563C0.147,-0.563 0.033,-0.452 0.033,-0.277C0.033,-0.103 0.15,0.009 0.311,0.009C0.448,0.009 0.54,-0.072 0.57,-0.174Z" style="fill:rgb(32,32,62);fill-rule:nonzero;"/>
                        </g>
                        <g transform="matrix(249.121,0,0,400,25905.8,7633.96)">
                            <path d="M0.209,-0.474L0.209,-0.554L0.069,-0.554L0.069,0.264L0.209,0.264L0.209,-0.079C0.243,-0.034 0.305,0.009 0.392,0.009C0.534,0.009 0.645,-0.106 0.645,-0.279C0.645,-0.452 0.534,-0.563 0.392,-0.563C0.306,-0.563 0.242,-0.521 0.209,-0.474ZM0.502,-0.279C0.502,-0.174 0.431,-0.114 0.355,-0.114C0.28,-0.114 0.209,-0.172 0.209,-0.277C0.209,-0.382 0.28,-0.44 0.355,-0.44C0.431,-0.44 0.502,-0.384 0.502,-0.279Z" style="fill:rgb(32,32,62);fill-rule:nonzero;"/>
                        </g>
                        <g transform="matrix(249.121,0,0,400,26069.8,7633.96)">
                            <path d="M0.069,0L0.209,0L0.209,-0.306C0.209,-0.395 0.258,-0.443 0.334,-0.443C0.408,-0.443 0.457,-0.395 0.457,-0.306L0.457,0L0.597,0L0.597,-0.325C0.597,-0.478 0.506,-0.562 0.381,-0.562C0.307,-0.562 0.245,-0.532 0.209,-0.485L0.209,-0.74L0.069,-0.74L0.069,0Z" style="fill:rgb(32,32,62);fill-rule:nonzero;"/>
                        </g>
                        <g transform="matrix(249.121,0,0,400,26229.5,7633.96)">
                            <rect x="0.069" y="-0.554" width="0.14" height="0.554" style="fill:rgb(32,32,62);fill-rule:nonzero;"/>
                        </g>
                        <g transform="matrix(249.121,0,0,400,26293.7,7633.96)">
                            <path d="M0.592,-0.554L0.451,-0.554L0.451,-0.249C0.451,-0.16 0.403,-0.112 0.327,-0.112C0.253,-0.112 0.204,-0.16 0.204,-0.249L0.204,-0.554L0.064,-0.554L0.064,-0.229C0.064,-0.077 0.157,0.007 0.286,0.007C0.355,0.007 0.416,-0.023 0.451,-0.07L0.451,0L0.592,0L0.592,-0.554Z" style="fill:rgb(32,32,62);fill-rule:nonzero;"/>
                        </g>
                        <g transform="matrix(249.121,0,0,400,26453.4,7633.96)">
                            <path d="M0.844,0L0.984,0L0.984,-0.325C0.984,-0.478 0.89,-0.562 0.757,-0.562C0.676,-0.562 0.603,-0.519 0.567,-0.456C0.529,-0.525 0.458,-0.562 0.372,-0.562C0.303,-0.562 0.244,-0.533 0.209,-0.487L0.209,-0.554L0.069,-0.554L0.069,0L0.209,0L0.209,-0.306C0.209,-0.394 0.258,-0.44 0.334,-0.44C0.408,-0.44 0.457,-0.394 0.457,-0.306L0.457,0L0.597,0L0.597,-0.306C0.597,-0.394 0.646,-0.44 0.721,-0.44C0.795,-0.44 0.844,-0.394 0.844,-0.306L0.844,0Z" style="fill:rgb(32,32,62);fill-rule:nonzero;"/>
                        </g>
                    </g>
                    <g transform="matrix(0.870175,-0.153435,5.55112e-17,0.600104,26638.6,26980.7)">
                        <path d="M23021.3,4364.73C23021.3,4357.17 23017.2,4351.04 23012.2,4351.04L22965.1,4351.04C22960,4351.04 22955.9,4357.17 22955.9,4364.73L22955.9,4449.89C22955.9,4457.44 22960,4463.58 22965.1,4463.58L23012.2,4463.58C23017.2,4463.58 23021.3,4457.44 23021.3,4449.89L23021.3,4364.73Z" style="fill:rgb(32,32,62);"/>
                    </g>
                </g>
                <g transform="matrix(0.857644,0,0,0.857924,-142.761,-10.0077)">
                    <g transform="matrix(0.182619,-0.032196,-1.43736e-34,0.179369,-3849.48,59.5806)">
                        <path d="M23021.3,4358.98C23021.3,4354.6 23017.9,4351.04 23013.7,4351.04L22963.5,4351.04C22959.3,4351.04 22955.9,4354.6 22955.9,4358.98L22955.9,4455.63C22955.9,4460.02 22959.3,4463.58 22963.5,4463.58L23013.7,4463.58C23017.9,4463.58 23021.3,4460.02 23021.3,4455.63L23021.3,4358.98Z" style="fill:rgb(32,32,62);"/>
                    </g>
                    <g transform="matrix(0.182619,-0.032196,-1.43736e-34,0.179369,-3825.6,20.7623)">
                        <path d="M23021.3,4358.98C23021.3,4354.6 23017.9,4351.04 23013.7,4351.04L22963.5,4351.04C22959.3,4351.04 22955.9,4354.6 22955.9,4358.98L22955.9,4455.63C22955.9,4460.02 22959.3,4463.58 22963.5,4463.58L23013.7,4463.58C23017.9,4463.58 23021.3,4460.02 23021.3,4455.63L23021.3,4358.98Z" style="fill:rgb(255,77,68);"/>
                    </g>
                    <g transform="matrix(0.195663,-0.0344957,0.204668,0.450774,-5039.44,-1103.13)">
                        <path d="M23021.3,4354.17C23021.3,4352.44 23017.9,4351.04 23013.7,4351.04L22963.5,4351.04C22959.3,4351.04 22955.9,4352.44 22955.9,4354.17L22955.9,4460.44C22955.9,4462.17 22959.3,4463.58 22963.5,4463.58L23013.7,4463.58C23017.9,4463.58 23021.3,4462.17 23021.3,4460.44L23021.3,4354.17Z" style="fill:rgb(32,32,62);"/>
                    </g>
                </g>
            </g>
        </g>
    </g>
</svg>
